!!!!SEGMENT: pl-sa--68-a-ii-8--005_mrozowski-tadeusz--missa-ex-g-tantum-ergo-sacramentum.krn
!!!cenid: 17xx:365
!!!COM: Mrozowski, Tadeusz
!!!COM-rismid: pe30020313
!!!CDT: <1790->1810
!!!CNT:
!!!OPR: Missa ex G
!!!OTL: Tantum Ergo Sacramentum
!!!OMV: 005
!!!PDT:
!!!AGN: Sacred; Mass
!!!SMS-siglum: PL-SA
!!!SMS-shelfmark: 68/A II 8
!!!SMS-shelfwork: 001-005 M
!!!NIFC-rismid: 1001035348
!!!URL-scan: http://bc.bdsandomierz.pl/dlibra/publication/1339/edition/1307/content
!!!ONB-nifc: UWAGA: części Mszy: Kyrie, Gloria, Symphonia post Epistolam, Credo, Tantum Ergo Sacramentum, Sanctus, Agnus, Dona nobis, Presto
**kern	**dynam	**kern	**dynam	**kern	**dynam	**kern	**text
*part4	*part4	*part3	*part3	*part2	*part2	*part1	*part1
*staff4	*	*staff3	*	*staff2	*	*staff1	*staff1
*Iempty	*	*Ivioln	*	*Ivioln	*	*Ivox	*
*I"Fundamento.	*	*I"Violino Secundo.	*	*I"Violino Primo.	*	*I"Canto Solo.	*
*I'Fund	*	*I'Vno II	*	*I'Vno I	*	*I'C solo	*
*clefF4	*	*clefG2	*	*clefG2	*	*clefC1	*
*k[f#]	*	*k[f#]	*	*k[f#]	*	*k[f#]	*
*G:	*	*G:	*	*G:	*	*G:	*
*M3/8	*	*M3/8	*	*M3/8	*	*M3/8	*
*	*	*	*	*	*below	*	*
=1	=1	=1	=1	=1	=1	=1	=1
!LO:TX:a:rj:t=Tantum Ergo Sacramentum	!	!LO:TX:a:rj:t=Adagio	!	!LO:TX:a:t=Adagio	!	!	!
!LO:TX:a:t=Adagio.	!	!	!	!	!	!	!
!LO:TX:a:t=P:problem: mixed beam	!	!LO:TX:b:t=Tantum Ergo Sacramentum	!	!LO:TX:b:t=Tantum Ergo Sacramentum.	!	!LO:TX:a:t=25.	!
8G\L	.	8b\L	.	8dd\L	.	4.r	.
8GG/	.	16b\L	.	16dd\L	.	.	.
.	.	16dd\	.	16bb\	.	.	.
8GG/J	.	16cc\	.	16aa\	.	.	.
.	.	16b\JJ	.	16gg\JJ	.	.	.
=2	=2	=2	=2	=2	=2	=2	=2
4.D\	.	16b/LL	.	16gg\LL	.	4.r	.
.	.	16a/JJ	.	16ff#\JJ	.	.	.
.	.	4a/	.	4ff#\	.	.	.
=3	=3	=3	=3	=3	=3	=3	=3
8F#\L	.	8b\L	.	8dd|\L	.	4.r	.
8D\	.	16b\L	.	(16dd\L	.	.	.
.	.	16aa\	.	16ccc\	.	.	.
8F#\J	.	16gg\	.	16bb\	.	.	.
.	.	16cc\JJ	.	16aa\JJ)	.	.	.
=4	=4	=4	=4	=4	=4	=4	=4
!LO:TX:a:t=P:problem: mixed beam	!	!	!	!	!	!	!
8G\L	.	16cc\LL	.	16aa\LL	.	4.r	.
.	.	16b\JJ	.	16gg\JJ	.	.	.
8D\	.	4b\	.	4gg\	.	.	.
8GG/J	.	.	.	.	.	.	.
=5	=5	=5	=5	=5	=5	=5	=5
*	*	*tremolo	*	*	*	*	*
8GG/	.	8b/ 8d/L	.	8gg\	.	4.r	.
8r	.	8b/ 8d/	.	(32gg\LLL	.	.	.
.	.	.	.	32aa\	.	.	.
.	.	.	.	32bb\	.	.	.
.	.	.	.	32aa\JJJ)	.	.	.
8r	.	8b/ 8d/J	.	(32gg\LLL	.	.	.
.	.	.	.	32ff#\	.	.	.
.	.	.	.	32ee\	.	.	.
.	.	.	.	32dd\JJJ)	.	.	.
=6	=6	=6	=6	=6	=6	=6	=6
*	*	*^	*	*	*	*	*
8F#|\L	.	8a/L	8f#\L	.	(16cc\LL	.	4.r	.
.	.	.	.	.	16b\JJ)	.	.	.
8D|\	.	8a/	8f#\	.	8.aa\L	.	.	.
8F#|\J	.	8a/J	8f#\J	.	.	.	.	.
.	.	.	.	.	16cc\Jk	.	.	.
=7	=7	=7	=7	=7	=7	=7	=7	=7
8G|\L	.	8b/L	8g\L	.	16b/LL	.	4.r	.
.	.	.	.	.	16g/JJ	.	.	.
8D|\	.	8b/	8g\	.	8.gg\L	.	.	.
8G|\J	.	8b/J	8g\J	.	.	.	.	.
.	.	.	.	.	16b\Jk	.	.	.
*	*	*v	*v	*	*	*	*	*
=8	=8	=8	=8	=8	=8	=8	=8
*tremolo	*	*Xtremolo	*	*	*	*	*
8D\L	.	32f#/LLL	.	(32a\LLL	.	4.r	.
.	.	32g/	.	32b\	.	.	.
.	.	32a/	.	32cc\	.	.	.
.	.	32b/JJJ	.	32dd\JJJ)	.	.	.
8D\	.	32a/LLL	.	(32cc\LLL	.	.	.
.	.	32g/	.	32b\	.	.	.
.	.	32f#/	.	32a\	.	.	.
.	.	32g/JJJ	.	32b\JJJ)	.	.	.
8D\J	.	8f#/	.	8a|/	.	.	.
=9	=9	=9	=9	=9	=9	=9	=9
*Xtremolo	*	*tremolo	*	*	*	*	*
16D|\LL	.	8b/ 8d/L	.	8dd'\L	.	4.r	.
16G|\	.	.	.	.	.	.	.
!	!	!	!	!LO:N:vis=16	!	!	!
16D|\	.	8b/ 8d/	.	(32dd\LL	.	.	.
!	!	!	!	!LO:N:vis=16	!	!	!
.	.	.	.	32bb\	.	.	.
!	!	!	!	!LO:N:vis=16	!	!	!
16G|\	.	.	.	32aa\	.	.	.
!	!	!	!	!LO:N:vis=16	!	!	!
.	.	.	.	32gg\JJJ)	.	.	.
16D|\	.	8b/ 8d/J	.	32ff#\LLL	.	.	.
.	.	.	.	32gg\	.	.	.
16G|\JJ	.	.	.	32ff#\	.	.	.
.	.	.	.	32gg\JJJ	.	.	.
!LO:LB:g=original	!	!	!	!	!	!	!
=10	=10	=10	=10	=10	=10	=10	=10
16E|\LL	.	8cc/ 8d/L	.	8ee|\L	.	4.r	.
16G|\	.	.	.	.	.	.	.
!	!	!	!	!LO:N:vis=16	!	!	!
16E|\	.	8cc/ 8d/	.	(32ee\LL	.	.	.
!	!	!	!	!LO:N:vis=16	!	!	!
.	.	.	.	32bb\	.	.	.
!	!	!	!	!LO:N:vis=16	!	!	!
16G|\	.	.	.	32aa\	.	.	.
!	!	!	!	!LO:N:vis=16	!	!	!
.	.	.	.	32gg\JJJ)	.	.	.
16E|\	.	8cc/ 8d/J	.	32ff#\LLL	.	.	.
.	.	.	.	32gg\	.	.	.
16G|\JJ	.	.	.	32ff#\	.	.	.
.	.	.	.	32gg\JJJ	.	.	.
*	*	*Xtremolo	*	*	*	*	*
!	!	!	!	!LO:LB:g=original	!	!	!
=11	=11	=11	=11	=11	=11	=11	=11
16.G\LL	.	16.ee\LL	.	16.gg\LL	.	4.r	.
32F#\K	.	32dd\K	.	32ff#\K	.	.	.
16.E\	.	16.cc\	.	16.ee\	.	.	.
32D\K	.	32b\K	.	32dd\K	.	.	.
16.C\	.	16.a\	.	16.cc\	.	.	.
32BB\JJk	.	32g\JJk	.	32b\JJk	.	.	.
=12	=12	=12	=12	=12	=12	=12	=12
16.E/LL	.	16.cc/LL	.	16.ee\LL	.	4.r	.
32D/K	.	32b/K	.	32dd\K	.	.	.
16.C/	.	16.a/	.	16.cc\	.	.	.
32BB/K	.	32g/K	.	32b\K	.	.	.
16.AA/	.	16.f#/	.	16.a\	.	.	.
32GG/JJk	.	32e/JJk	.	32g\JJk	.	.	.
=13	=13	=13	=13	=13	=13	=13	=13
16D|\LL	.	8f#/ 8A/L	.	32f#/LLL	.	4.r	.
.	.	.	.	32d/	.	.	.
16D|\	.	.	.	32f#/	.	.	.
.	.	.	.	32a/JJJ	.	.	.
16F#|\	.	8f#/ 8A/	.	32dd\LLL	.	.	.
.	.	.	.	32a\	.	.	.
16A|\J	.	.	.	32f#\	.	.	.
.	.	.	.	32a\JJJ	.	.	.
8D|\J	.	8f#/ 8A/J	.	8d/	.	.	.
=14	=14	=14!|:	=14	=14!|:	=14	=14	=14
8F#\L	.	8ff#\L	p	8aa\	.	4.r	.
8D\	.	16ff#\L	.	32dd\LLL	.	.	.
.	.	.	.	32ff#\	.	.	.
.	.	16aa\	.	32aa\	.	.	.
.	.	.	.	32ccc\JJJ	.	.	.
8F#\J	.	16gg\	.	32dd\LLL	.	.	.
.	.	.	.	32gg\	.	.	.
.	.	16bb\JJ	.	32bb\	.	.	.
.	.	.	.	32ddd\JJJ	.	.	.
=15	=15	=15	=15	=15	=15	=15	=15
8F#\L	.	32aa\LLL	.	32ddd\LLL	.	4.r	.
.	.	32gg\	.	32bb\	.	.	.
.	.	32aa\	.	32ddd\	.	.	.
.	.	32ff#\JJJ	.	32aa\JJJ	.	.	.
8G\	.	32b\LLL	.	32gg\LLL	.	.	.
.	.	32gg\	.	32bb\	.	.	.
.	.	32bb\	.	32ddd\	.	.	.
.	.	32gg\JJJ	.	32bb\JJJ	.	.	.
8D\J	.	8ff#\	.	8aa\	.	.	.
=16	=16	=16:|!	=16	=16:|!	=16	=16	=16
16F#|\LL	f	8ff#\Lyy	p	8aa\yy	.	4.r	.
16D|\	.	.	.	.	.	.	.
16F#|\	.	16ff#\Lyy	.	32dd\LLLyy	.	.	.
.	.	.	.	32ff#\yy	.	.	.
16D|\	.	16aa\yy	.	32aa\yy	.	.	.
.	.	.	.	32ccc\JJJyy	.	.	.
16G|\	.	16gg\yy	.	32dd\LLLyy	.	.	.
.	.	.	.	32gg\yy	.	.	.
16D|\JJ	.	16bb\JJyy	.	32bb\yy	.	.	.
.	.	.	.	32ddd\JJJyy	.	.	.
=17	=17	=17	=17	=17	=17	=17	=17
16F#|\LL	.	32aa\LLLyy	.	32ddd\LLLyy	.	4.r	.
.	.	32gg\yy	.	32bb\yy	.	.	.
16D|\	.	32aa\yy	.	32ddd\yy	.	.	.
.	.	32ff#\JJJyy	.	32aa\JJJyy	.	.	.
16G|\	.	32b\LLLyy	.	32gg\LLLyy	.	.	.
.	.	32gg\yy	.	32bb\yy	.	.	.
16D|\	.	32bb\yy	.	32ddd\yy	.	.	.
.	.	32gg\JJJyy	.	32bb\JJJyy	.	.	.
16F#|\	.	8ff#\yy	.	8aa\yy	.	.	.
16D|\JJ	.	.	.	.	.	.	.
!LO:LB:g=original	!	!LO:LB:g=original	!	!	!	!	!
=18	=18	=18	=18	=18	=18	=18	=18
*tremolo	*	*	*	*	*	*	*
8G\L	p	16gg\LL	.	16bb\LL	.	4.r	.
.	.	16bb\	.	16ddd\	.	.	.
8G\	.	16bb\	.	16ddd\	.	.	.
.	.	16gg\	.	16bb\	.	.	.
8G\J	.	16gg\	.	16bb\	.	.	.
.	.	16bb\JJ	.	16ddd\JJ	.	.	.
=19	=19	=19	=19	=19	=19	=19	=19
8D\L	.	16aa\LL	.	16ccc\LL	.	4.r	.
.	.	16gg\JJ	.	16bb\JJ	.	.	.
8D\	.	8ff#\L	.	8aa\L	.	.	.
8D\J	.	8aa\J	.	8ccc\J	.	.	.
=20	=20	=20	=20	=20	=20	=20	=20
8G\L	.	16gg\LL	.	(16bb\LL	.	4.r	.
.	.	16bb\	.	16ddd\	.	.	.
8G\	.	16bb\	.	16ddd\	.	.	.
.	.	16gg\	.	16bb\	.	.	.
8G\J	.	16gg\	.	16bb\	.	.	.
.	.	16bb\JJ	.	16ddd\JJ)	.	.	.
=21	=21	=21	=21	=21	=21	=21	=21
8D\L	.	16aa\LL	.	16ccc\LL	.	4.r	.
.	.	16gg\JJ	.	16bb\JJ	.	.	.
8D\	.	8ff#\L	.	8aa\L	.	.	.
8D\J	.	8aa\J	.	8ccc\J	.	.	.
=22	=22	=22	=22	=22	=22	=22	=22
8G\L	.	8gg\	.	8bb'\	.	4.r	.
8G\	.	16r	.	16r	.	.	.
.	.	16bb\LL	.	16ddd'\LL	.	.	.
8G\J	.	16gg\	.	16bb'\	.	.	.
.	.	16bb\JJ	.	16ddd'\JJ	.	.	.
!	!	!	!	!LO:LB:g=original	!	!	!
=23	=23	=23	=23	=23	=23	=23	=23
8D\L	.	8aa\	.	8ccc\	.	4.r	.
8D\	.	16r	.	16r	.	.	.
.	.	16aa\LL	.	16ccc\LL	.	.	.
8D\J	.	16ff#\	.	16aa\	.	.	.
.	.	16aa\JJ	.	16ccc\JJ	.	.	.
*Xtremolo	*	*	*	*	*	*	*
=24	=24	=24	=24	=24	=24	=24	=24
16G\LL	.	8gg\	.	8bb\	.	4.r	.
16G\	.	.	.	.	.	.	.
16G\	.	16r	.	16r	.	.	.
16G\	.	16bb\LL	.	16ddd'\LL	.	.	.
16D\	.	16gg\	.	16bb'\	.	.	.
16D\JJ	.	16bb\JJ	.	16ddd'\JJ	.	.	.
=25	=25	=25	=25	=25	=25	=25	=25
!LO:TX:a:t=P:problem: mixed beam	!	!	!	!	!	!	!
8G\L	.	8gg\	.	8bb\	.	4.r	.
8D\	.	8r	.	8r	.	.	.
8GG/J	.	8r	.	8r	.	.	.
=26	=26	=26||	=26||	=26||	=26||	=26||	=26||
*tremolo	*	*	*	*	*	*	*
!	!	!	!LO:DY:t=pp.	!	!LO:DY:t=pp.	!	!
8G\L	.	8.b\L	pp	8.dd\L	pp	8.dd\	Tan-
8G\	.	.	.	.	.	.	.
.	.	16cc\K	.	16ee\K	.	16ee\	.
8G\J	.	8b\J	.	8dd\J	.	8dd\	-tum
*Xtremolo	*	*	*	*	*	*	*
=27	=27	=27	=27	=27	=27	=27	=27
!LO:TX:a:t=P:problem: mixed beam	!	!	!	!	!	!	!
8G\L	.	8b\L	.	8dd\L	.	8dd\L	er-
8GG/J	.	8g\	.	8b\	.	8b\	.
8r	.	8a\J	.	8cc\J	.	8cc\J	-go
=28	=28	=28	=28	=28	=28	=28	=28
!LO:TX:a:t=P:problem: mixed beam	!	!	!	!	!	!	!
8G\L	.	8b\L	.	8dd\L	.	8dd\L	Sa-
8C/	.	8gg\	.	8bb\	.	8bb\	.
8C/J	.	8ff#\J	.	8aa\J	.	8aa\J	-cra-
=29	=29	=29	=29	=29	=29	=29	=29
8D/L	.	8b\L	.	8gg\L	.	8gg\L	-men-
8DD/J	.	8a\J	.	8ff#\J	.	8ff#\J	-tum
8r	.	8r	.	8r	.	8r	.
!LO:LB:g=original	!	!	!	!	!	!	!
=30	=30	=30	=30	=30	=30	=30	=30
*tremolo	*	*	*	*	*	*	*
8F#\L	.	8.a/L	.	8.cc\L	.	8.cc\L	Ve-
8F#\	.	.	.	.	.	.	.
.	.	16b/K	.	16dd\K	.	16dd\K	.
8F#\J	.	8a/J	.	8cc\J	.	8cc\J	-ne-
!	!	!	!	!	!	!LO:LB:g=original	!
=31	=31	=31	=31	=31	=31	=31	=31
8F#\L	.	8.a/L	.	8.cc\L	.	8.cc\L	-re-
8F#\	.	.	.	.	.	.	.
.	.	16b/K	.	16dd\K	.	16dd\K	.
8F#\J	.	8a/J	.	8cc\J	.	8cc\J	-mur
*Xtremolo	*	*	*	*	*	*	*
!	!	!LO:LB:g=original	!	!	!	!	!
=32	=32	=32	=32	=32	=32	=32	=32
8F#\	.	16ff#\LL	.	16aa'\LL	.	16aa\LL	cer-
.	.	16ee\	.	16gg'\	.	16gg\	.
8r	.	16dd\	.	16ff#'\	.	16ff#\	.
.	.	16cc\	.	16ee'\	.	16ee\	.
!	!	!LO:TX:a:t=h.	!	!	!	!	!
8r	.	16b\	.	16dd'\	.	16dd\	.
!	!	!LO:TX:a:t=a	!	!	!	!	!
.	.	16a\JJ	.	16cc'\JJ	.	16cc\JJ	.
=33	=33	=33	=33	=33	=33	=33	=33
!	!	!LO:TX:a:t=a.	!	!	!	!	!
8F#\L	.	8a/L	.	8cc\L	.	8.cc\L	.
8G\J	.	8g/J	.	8b\J	.	.	.
.	.	.	.	.	.	16cc\K	-nu-
8r	.	8r	.	8r	.	8b\J	-i
=34	=34	=34	=34	=34	=34	=34	=34
*tremolo	*	*	*	*	*	*	*
8G\L	.	4b\	.	4dd\	.	4dd\	et
8G\	.	.	.	.	.	.	.
8G\J	.	8b\	.	8dd\	.	8dd\	an-
*Xtremolo	*	*	*	*	*	*	*
=35	=35	=35	=35	=35	=35	=35	=35
8G\	.	8b\L	.	8gg\L	.	8gg\L	-ti-
8r	.	8a\	.	8ff#\	.	8ff#\	-qu-
8r	.	8b\J	.	8gg\J	.	8gg\J	-um
=36	=36	=36	=36	=36	=36	=36	=36
*tremolo	*	*	*	*	*	*	*
8C/L	.	4cc\	.	4ee\	.	4ee\	do-
8C/	.	.	.	.	.	.	.
8C/J	.	8cc\	.	8ee\	.	8ee\	-cu-
*Xtremolo	*	*	*	*	*	*	*
=37	=37	=37	=37	=37	=37	=37	=37
8G\	.	8b\L	.	8gg\L	.	8gg\L	-men-
8r	.	8a\	.	8ff#\	.	8ff#\	.
8r	.	8b\J	.	8gg\J	.	8gg\J	-tum
=38	=38	=38	=38	=38	=38	=38	=38
8F#\L	.	8b/L	.	8dd\L	.	8dd\L	no-
8A\	.	8a/	.	8cc\	.	8cc\J	-vam
8G\J	.	8g/J	.	8b\J	.	16b\LL	ce-
.	.	.	.	.	.	16b\JJ	-dat
!	!	!	!	!LO:LB:g=original	!	!	!
=39	=39	=39	=39	=39	=39	=39	=39
8G\L	.	16g/LL	.	16.b\LL	.	16.b\LL	ri-
.	.	16g/J	.	.	.	.	.
.	.	.	.	32a\JJk	.	32a\JJk	-tu-
8D\	.	8f#/J	.	8a/	.	8a\	-i
8D\J	.	8r	.	8r	.	8r	.
!LO:LB:g=original	!	!	!	!	!	!	!
=40	=40	=40	=40	=40	=40	=40	=40
!	!	!	!	!	!	!LO:TX:a:t=4	!
8r	.	8r	.	16dd\LL	f	1.r	.
.	.	.	.	16b\JJ	.	.	.
16G#X\LL	.	8g#X/L 8B/	.	4g#X/	.	.	.
16E\	.	.	.	.	.	.	.
16G#\	.	8g#/J 8B/	.	.	.	.	.
16E\JJ	.	.	.	.	.	.	.
=41	=41	=41	=41	=41	=41	=41	=41
8A\	.	8a/	.	16a/LL	.	.	.
.	.	.	.	16b/	.	.	.
8r	.	8r	.	16cc/	.	.	.
.	.	.	.	16dd/	.	.	.
8r	.	8r	.	16ee/	.	.	.
.	.	.	.	16cc/JJ	.	.	.
=42	=42	=42	=42	=42	=42	=42	=42
8r	.	8r	.	16cc\LL	.	.	.
.	.	.	.	16a\JJ	.	.	.
16F#\LL	.	8f#/L 8A/	.	4f#/	.	.	.
16D\	.	.	.	.	.	.	.
16F#\	.	8f#/J 8A/	.	.	.	.	.
16D\JJ	.	.	.	.	.	.	.
=43	=43	=43	=43	=43	=43	=43	=43
8G\	.	4gn/ 4G/	.	16g/LL	.	.	.
.	.	.	.	16a/	.	.	.
8r	.	.	.	16b/	.	.	.
.	.	.	.	16cc/	.	.	.
8r	.	8r	.	16dd/	.	.	.
.	.	.	.	16b/JJ	.	.	.
=44	=44	=44	=44	=44	=44	=44	=44
!LO:TX:a:t=P:problem: mixed beam	!	!	!	!	!	!	!
8G\L	.	8b\L	.	8dd\L	.	8dd\	prae-
8GG/	.	8b\	.	8gg\	.	8gg\	.
8GG/J	.	8b\J	.	8dd\J	.	8dd\	-stet
!	!	!	!	!	!	!LO:LB:g=original	!
=45	=45	=45	=45	=45	=45	=45	=45
8D\L	.	16b\LL	.	(16dd\LL	.	16dd\LL	Fi-
.	.	16cc\	.	16ee\)	.	16ee\	.
8F#\	.	16f#\	.	(16a\	.	16a\	.
.	.	16a\JJ	.	16cc\J)	.	16cc\JJ	.
8G\J	.	8g/	.	8b|\J	.	8b\	-des
=46	=46	=46	=46	=46	=46	=46	=46
*tremolo	*	*	*	*	*	*	*
8G\L	.	16b\LL	.	16dd\LL	.	8dd\	sup-
.	.	16b\	.	16b\	.	.	.
8G\	.	16b\	.	16gg\	.	8gg\	.
.	.	16a\	.	16ff#\	.	.	.
8G\J	.	16cc\	.	16ee\	.	8dd\	-le-
.	.	16b\JJ	.	16dd\JJ	.	.	.
*Xtremolo	*	*	*	*	*	*	*
!	!	!LO:LB:g=original	!	!	!	!	!
=47	=47	=47	=47	=47	=47	=47	=47
8D\L	.	16b/LL	.	(16dd\LL	.	16dd\LL	-men-
.	.	16a/	.	16cc\	.	16ee\	.
8F#\	.	16f#/	.	16a\	.	16a\	.
.	.	16a/JJ	.	16cc\J)	.	16cc\JJ	.
8G\J	.	8g/	.	8b|\J	.	8b\	-tum
=48	=48	=48	=48	=48	=48	=48	=48
8G\L	.	(16b\LL	.	16dd\LL	.	16dd\LL	Sen-
.	.	16cc\	.	(16ee\	.	16ee\JJ	.
8C\	.	16b\	.	16dd\	.	16dd\LL	-sum
.	.	16a\JJ)	.	16cc\	.	16cc\JJ	.
8D\J	.	16g/LL	.	16b\	.	16b\LL	de-
.	.	16G/JJ	.	16a\JJ)	.	16a\JJ	.
=49	=49	=49	=49	=49	=49	=49	=49
16G\LL	.	4c/	.	8a/	.	16.a\LL	-fe-
16D\	.	.	.	.	.	.	.
.	.	.	.	.	.	32a\JJk	-ctu-
16BB\	.	.	.	4g/	.	8g/	-i
16D\JJ	.	.	.	.	.	.	.
8GG/	.	8B/	.	.	.	8r	.
!LO:LB:g=original	!	!	!	!	!	!	!
=50	=50	=50	=50	=50	=50	=50	=50
!	!	!	!	!	!	!LO:TX:a:t=12.	!
8GG/	.	8d/L	.	16d/LL	.	1.r	.
.	.	.	.	16g/JJ	.	.	.
8r	.	8g/	.	8b/L	.	.	.
8r	.	8g/J	.	8b/J	.	.	.
=51	=51	=51	=51	=51	=51	=51	=51
16r	.	16g/LL	.	16b/LL	.	.	.
16D|\LL	.	16f#/JJ	.	16a/JJ	.	.	.
16F#|\	.	4f#/	.	4a/	.	.	.
16A|\	.	.	.	.	.	.	.
16F#|\	.	.	.	.	.	.	.
16D|\JJ	.	.	.	.	.	.	.
=52	=52	=52	=52	=52	=52	=52	=52
!	!	!	!	!LO:N:vis=8	!	!	!
8D\	.	8d/L	.	16d/LL	.	.	.
.	.	.	.	32f#/L	.	.	.
.	.	.	.	32a/JJJ	.	.	.
8r	.	8a/	.	8cc\L	.	.	.
8r	.	8a/J	.	8cc\J	.	.	.
=53	=53	=53	=53	=53	=53	=53	=53
16r	.	16a/LL	.	16cc\LL	.	.	.
16GG|/LL	.	16g/JJ	.	16b\JJ	.	.	.
16BB|/	.	4g/	.	4b\	.	.	.
16D|/	.	.	.	.	.	.	.
16BB|/	.	.	.	.	.	.	.
16GG|/JJ	.	.	.	.	.	.	.
!	!	!	!	!LO:LB:g=original	!	!	!
=54	=54	=54	=54	=54	=54	=54	=54
*temolo	*	*tremolo	*	*	*	*	*
8G\L	.	8b/ 8d/L	.	(16dd\LL	.	1.r	.
.	.	.	.	16gg\	.	.	.
8G\	.	8b/ 8d/	.	16gg\	.	.	.
.	.	.	.	16bb\	.	.	.
8G\J	.	8b/ 8d/J	.	16bb\	.	.	.
.	.	.	.	16ddd\JJ)	.	.	.
=55	=55	=55	=55	=55	=55	=55	=55
8D\L	.	8cc/ 8d/L	.	8.ccc\L	.	.	.
8D\	.	8cc/ 8d/	.	.	.	.	.
.	.	.	.	16bb\K	.	.	.
8D\J	.	8cc/ 8d/J	.	8aa\J	.	.	.
=56	=56	=56	=56	=56	=56	=56	=56
!	!	!	!	!LO:TUP:a:problem:klamra łukowa	!	!	!
8G\L	.	8b/ 8d/L	.	24gg\LL	.	.	.
.	.	.	.	24dd\	.	.	.
.	.	.	.	24gg\JJ	.	.	.
!	!	!	!	!LO:TUP:a:problem:klamra łukowa	!	!	!
8G\	.	8b/ 8d/	.	24bb\LL	.	.	.
.	.	.	.	24gg\	.	.	.
.	.	.	.	24bb\JJ	.	.	.
!	!	!	!	!LO:TUP:a:problem:klamra łukowa	!	!	!
8G\J	.	8b/ 8d/J	.	24ddd\LL	.	.	.
.	.	.	.	24bb\	.	.	.
.	.	.	.	24ddd\JJ	.	.	.
=57	=57	=57	=57	=57	=57	=57	=57
8D\L	.	8cc/ 8d/L	.	(16ccc\LL	.	.	.
.	.	.	.	16bb\	.	.	.
8D\	.	8cc/ 8d/	.	16aa\	.	.	.
.	.	.	.	16bb\J)	.	.	.
8D\J	.	8cc/ 8d/J	.	8aa|\J	.	.	.
*Xtremolo	*	*Xtremolo	*	*	*	*	*
=58	=58	=58	=58	=58	=58	=58	=58
8G\	.	(16b\LL	f	16gg\LL	.	1.r	.
.	.	16a\	.	16ff#\	.	.	.
8r	.	16b\	.	(16gg\	.	.	.
.	.	16a\	.	16ff#\	.	.	.
8F#\	.	16b\	.	16gg\	.	.	.
.	.	16a\JJ)	.	16ff#\JJ)	.	.	.
!LO:LB:g=original	!	!	!	!	!	!	!
=59	=59	=59	=59	=59	=59	=59	=59
8E\	.	(16cc\LL	.	16ee\LL	.	.	.
.	.	16b\	.	(16dd#X\	.	.	.
8r	.	16cc\	.	16ee\	.	.	.
.	.	16b\	.	16dd#\	.	.	.
8D\	.	16cc\	.	16ee\	.	.	.
.	.	16b\JJ)	.	16dd#\JJ)	.	.	.
=60	=60	=60	=60	=60	=60	=60	=60
8C/L	.	16a/LL	.	16cc\LL	.	.	.
.	.	16g/	.	(16b\	.	.	.
8AA/	.	16f#/	.	16a\	.	.	.
.	.	16cc/JJ	.	16ee\	.	.	.
8D/J	.	16b/LL	.	16dd\	.	.	.
.	.	16B/JJ	.	16f#\JJ)	.	.	.
=61	=61	=61	=61	=61	=61	=61	=61
!LO:TX:a:t=P:problem: mixed beam	!	!	!	!	!	!	!
16GG/LL	.	4B/	.	4g/	.	.	.
16G\	.	.	.	.	.	.	.
16D\	.	.	.	.	.	.	.
16BB\JJ	.	.	.	.	.	.	.
8GG/	.	8r	.	8r	.	.	.
=62	=62	=62	=62	=62	=62	=62	=62
*tremolo	*	*tremolo	*	*	*	*	*
!	!	!	!	!	!LO:DY:b	!	!
8G\L	p	8b/ 8d/L	p	4dd\	pp	4dd\	Ge-
8G\	.	8b/ 8d/	.	.	.	.	.
8G\J	.	8b/ 8d/J	.	8dd\	.	8dd\	-ni-
*Xtremolo	*	*	*	*	*	*	*
!	!	!LO:LB:g=original	!	!	!	!	!
=63	=63	=63	=63	=63	=63	=63	=63
8G\	.	4b/ 4d/	.	8dd'\L	.	8dd\L	-to-
8r	.	.	.	8b'\	.	8b\	.
8r	.	8r	.	8g'\J	.	8g\J	-ri
=64	=64	=64	=64	=64	=64	=64	=64
*	*	*tremolo	*	*	*	*	*
!LO:TX:a:t=P:problem: mixed beam	!	!	!	!	!	!	!
8c\L	.	8cc/ 8e/L	.	4ee\	.	4ee\	Ge-
8C/	.	8cc/ 8e/	.	.	.	.	.
8C/J	.	8cc/ 8e/J	.	8ee\	.	8ee\	-ni-
*	*	*Xtremolo	*	*	*	*	*
!	!	!	!	!	!	!LO:LB:g=original	!
=65	=65	=65	=65	=65	=65	=65	=65
8C/	.	4cc/ 4e/	.	8ee'\L	.	8ee\L	-to-
4r	.	.	.	8cc'\	.	8cc\	.
.	.	8r	.	8a'\J	.	8a\J	-que
=66	=66	=66	=66	=66	=66	=66	=66
*tremolo	*	*	*	*	*	*	*
8D\L	.	4a/	.	4ff#\	.	4ff#\	laus
8D\	.	.	.	.	.	.	.
8D\J	.	8a/	.	8ff#\	.	8ff#\	et
*Xtremolo	*	*	*	*	*	*	*
=67	=67	=67	=67	=67	=67	=67	=67
8G|\	.	8b\L	.	8gg\L	.	8gg\L	Iu-
8r	.	8dd\	.	8bb\	.	8bb\	.
8C/	.	8cc\J	.	8aa\J	.	8aa\J	-bi-
!LO:LB:g=original	!	!	!	!	!	!	!
=68	=68	=68	=68	=68	=68	=68	=68
*tremolo	*	*	*	*	*	*	*
8D\L	.	16b\LL	.	16gg\LL	.	16gg\LL	-la-
.	.	16b\J	.	16gg\JJ	.	16gg\J	-ti-
8D\	.	8a\J	.	8ff#\	.	8ff#\J	-o
8D\J	.	8r	.	8r	.	8r	.
*Xtremolo	*	*	*	*	*	*	*
!	!	!	!	!LO:LB:g=original	!	!	!
=69!|:	=69	=69!|:	=69	=69!|:	=69	=69	=69
8r	.	8r	.	8gg\L	.	8gg\L	Sa-
8G\L	.	8b\L	p	8dd\	.	8dd\	.
8G\J	.	8b\J	.	8dd\J	.	8dd\J	-lus
=70	=70	=70	=70	=70	=70	=70	=70
8G\L	.	8b/L	.	8dd\L	.	8dd\L	Ho-
8D\	.	8a/	.	8cc\	.	8cc\	.
8G\J	.	8g/J	.	8b\J	.	8b\J	-nor
=71	=71	=71	=71	=71	=71	=71	=71
8r	.	8r	.	8gg\L	.	8gg\L	Vir-
8G\L	.	8b\L	.	8dd\	.	8dd\	.
8G\J	.	8b\J	.	8dd\J	.	8dd\J	-tus
=72	=72	=72	=72	=72	=72	=72	=72
8G\L	.	8b/L	.	8dd\L	.	8dd\L	quo-
8D\	.	8a/	.	8cc\	.	8cc\	.
8G\J	.	8g/J	.	8b\J	.	8b\J	-que
=73	=73	=73	=73	=73	=73	=73	=73
*tremolo	*	*	*	*	*	*	*
8F#\L	.	4f#/	.	4a\	.	4a\	Sit
8F#\	.	.	.	.	.	.	.
8F#\J	.	8a/	.	8cc\	.	8cc\	et
=74	=74	=74	=74	=74	=74	=74	=74
8G\L	.	4g/	.	4b\	.	4b\	Sit
8G\	.	.	.	.	.	.	.
8G\J	.	8b/	.	8dd\	.	8dd\	et
!	!	!	!	!	!	!LO:LB:g=original	!
=75	=75	=75	=75	=75	=75	=75	=75
*	*	*tremolo	*	*tremolo	*	*	*
*	*	*	*	*tremolo	*	*	*
8D\L	.	8a/L	.	8ff#\L	.	8ff#\L	Be-
8D\	.	8a/	.	8ff#\	.	8ff#\	.
8D\J	.	8a/J	.	8ff#\J	.	8ff#\J	-ne-
*Xtremolo	*	*Xtremolo	*	*Xtremolo	*	*	*
=76	=76	=76	=76	=76	=76	=76	=76
!LO:TX:a:t=P:problem: mixed beam	!	!	!	!	!	!	!
8G|\L	.	16b\LL	.	16gg\LL	.	16gg\LL	-dic-
.	.	16a\J	.	16ff#\JJ	.	16ff#\J	-ti-
8D|\	.	8b\J	.	8gg\	.	8gg\J	-o
8GG|/J	.	8r	.	8r	.	8r	.
=77	=77	=77	=77	=77	=77	=77	=77
*tremolo	*	*	*	*	*	*	*
8F#\L	.	4f#/	.	4a\	.	4a\	Sit
8F#\	.	.	.	.	.	.	.
8F#\J	.	8a/	.	8cc\	.	8cc\	et
*Xtremolo	*	*	*	*	*	*	*
=78	=78	=78	=78	=78	=78	=78	=78
8G|\L	.	4g/	.	4b\	.	4a\	Sit
8D|\	.	.	.	.	.	.	.
8G|\J	.	8b/	.	8dd\	.	8cc\	et
=79	=79	=79	=79	=79	=79	=79	=79
*tremolo	*	*tremolo	*	*tremolo	*	*	*
8D\L	.	8a/L	.	8ff#\L	.	8ff#\L	Be-
8D\	.	8a/	.	8ff#\	.	8ff#\	.
8D\J	.	8a/J	.	8ff#\J	.	8ff#\J	-ne-
*Xtremolo	*	*Xtremolo	*	*Xtremolo	*	*	*
!LO:LB:g=original	!	!	!	!	!	!	!
=80	=80	=80	=80	=80	=80	=80	=80
!LO:TX:a:t=P:problem: mixed beam	!	!	!	!	!	!	!
8G|\L	.	16b\LL	.	16gg\LL	.	16gg\LL	-dic-
.	.	16a\J	.	16ff#\JJ	.	16ff#\J	-ti-
8D|\	.	8b\J	.	8gg\	.	8gg\J	-o
8GG|\J	.	8r	.	8r	.	8r	.
=81	=81	=81:|!	=81	=81:|!	=81	=81	=81
!	!	!	!	!LO:TX:a:t=P:problem: t.81-92 zapisane jako powtórka	!	!	!
8ryy	.	8ryy	.	8gg\Lyy	.	8gg\L	Pro-
!LO:TX:a:t=P:problem: t.81-92 zapisane jako powtórka	!	!LO:TX:a:t=P:problem: t.81-92 zapisane jako powtórka	!	!	!	!	!
8G\Lyy	.	8b\Lyy	.	8dd\yy	.	8dd\	.
8G\Jyy	.	8b\Jyy	.	8dd\Jyy	.	8dd\J	-ce-
=82	=82	=82	=82	=82	=82	=82	=82
8G\Lyy	.	8b/Lyy	.	8dd\Lyy	.	8dd\L	-den-
8D\yy	.	8a/yy	.	8cc\yy	.	8cc\	.
8G\Jyy	.	8g/Jyy	.	8b\Jyy	.	8b\J	-ti
=83	=83	=83	=83	=83	=83	=83	=83
8ryy	.	8ryy	.	8gg\Lyy	.	8gg\L	ab
8G\Lyy	.	8b\Lyy	.	8dd\yy	.	8dd\	.
8G\Jyy	.	8b\Jyy	.	8dd\Jyy	.	8dd\J	u-
=84	=84	=84	=84	=84	=84	=84	=84
8G\Lyy	.	8b/Lyy	.	8dd\Lyy	.	8dd\L	-tro-
8D\yy	.	8a/yy	.	8cc\yy	.	8cc\	.
8G\Jyy	.	8g/Jyy	.	8b\Jyy	.	8b\J	-que
!	!	!	!	!	!	!LO:LB:g=original	!
=85	=85	=85	=85	=85	=85	=85	=85
*tremolo	*	*	*	*	*	*	*
8F#\yyL	.	4f#/yy	.	4a\yy	.	4a\	Com-
8F#\yy	.	.	.	.	.	.	.
8F#\yyJ	.	8a/yy	.	8cc\yy	.	8cc\	-par.
=86	=86	=86	=86	=86	=86	=86	=86
8G\yyL	.	4g/yy	.	4b\yy	.	4b\	Com-
8G\yy	.	.	.	.	.	.	.
8G\yyJ	.	8b/yy	.	8dd\yy	.	8dd\	-par.
=87	=87	=87	=87	=87	=87	=87	=87
*	*	*tremolo	*	*tremolo	*	*	*
8D\yyL	.	8a/yyL	.	8ff#\yyL	.	4ff#\	Sit
8D\yy	.	8a/yy	.	8ff#\yy	.	.	.
8D\yyJ	.	8a/yyJ	.	8ff#\yyJ	.	8ff#\	Lau-
*Xtremolo	*	*Xtremolo	*	*Xtremolo	*	*	*
=88	=88	=88	=88	=88	=88	=88	=88
!LO:TX:a:t=P:problem: mixed beam	!	!	!	!	!	!	!
8G|\Lyy	.	16b\LLyy	.	16gg\LLyy	.	16gg\LL	-da-
.	.	16a\Jyy	.	16ff#\JJyy	.	16ff#\J	-ti-
8D|\yy	.	8b\Jyy	.	8gg\yy	.	8gg\J	-o
8GG|/Jyy	.	8ryy	.	8ryy	.	8r	.
=89	=89	=89	=89	=89	=89	=89	=89
*tremolo	*	*	*	*	*	*	*
8F#\yyL	.	4f#/yy	.	4a\yy	.	4a\	Com-
8F#\yy	.	.	.	.	.	.	.
8F#\yyJ	.	8a/yy	.	8cc\yy	.	8cc\	-par.
*Xtremolo	*	*	*	*	*	*	*
=90	=90	=90	=90	=90	=90	=90	=90
8G|\Lyy	.	4g/yy	.	4b\yy	.	4b\	Com-
8D|\yy	.	.	.	.	.	.	.
8G|\Jyy	.	8b/yy	.	8dd\yy	.	8dd\	-par.
=91	=91	=91	=91	=91	=91	=91	=91
*tremolo	*	*tremolo	*	*tremolo	*	*	*
8D\yyL	.	8a/yyL	.	8ff#\yyL	.	4ff#\	Sit
8D\yy	.	8a/yy	.	8ff#\yy	.	.	.
8D\yyJ	.	8a/yyJ	.	8ff#\yyJ	.	8ff#\	Lau-
*	*	*	*	*Xtremolo	*	*	*
*Xtremolo	*	*Xtremolo	*	*Xtremolo	*	*	*
!LO:LB:g=original	!	!	!	!	!	!	!
=92	=92	=92	=92	=92	=92	=92	=92
!LO:TX:a:t=P:problem: mixed beam	!	!	!	!	!	!	!
8G|\Lyy	.	16b\LLyy	.	16gg\LLyy	.	16gg\LL	-da-
.	.	16a\Jyy	.	16ff#\JJyy	.	16ff#\J	-ti-
8D|\yy	.	8b\Jyy	.	8gg\yy	.	8gg\J	-o.
8GG|/Jyy	.	8ryy	.	8ryy	.	8r	.
!	!	!LO:LB:g=original	!	!	!	!	!
=93	=93	=93	=93	=93	=93	=93	=93
!	!	!	!	!	!	!LO:TX:a:t=10412.	!
8G\	.	16.gg\LL	f	16.bb\LL	f	1.r	.
.	.	32ff#\K	.	32aa\K	.	.	.
8r	.	16.ee\	.	16.gg\	.	.	.
.	.	32dd\K	.	32ff#\K	.	.	.
8G\	.	16.cc\	.	16.ee\	.	.	.
.	.	32b\JJk	.	32dd\JJk	.	.	.
=94	=94	=94	=94	=94	=94	=94	=94
8F#\	.	16b/LL	.	16dd\LL	.	.	.
.	.	16a/	.	16cc\	.	.	.
8r	.	(16g#X/	.	(16b\	.	.	.
.	.	16a/	.	16cc\	.	.	.
8F#\	.	16g#/	.	16b\	.	.	.
.	.	16a/JJ)	.	16cc\JJ)	.	.	.
=95	=95	=95	=95	=95	=95	=95	=95
8F#\	.	16.ff#\LL	.	(16.aa'\LL	.	.	.
.	.	32ee\K	.	32gg'\K	.	.	.
8r	.	16.dd\	.	16.ff#'\	.	.	.
.	.	32cc\K	.	32ee'\K	.	.	.
8F#\	.	16.b\	.	16.dd'\)	.	.	.
.	.	32a\JJk	.	32cc'\JJk	.	.	.
=96	=96	=96	=96	=96	=96	=96	=96
8G\	.	16a/LL	.	(16cc\LL	.	.	.
.	.	16gn/	.	16b\	.	.	.
8r	.	(16f#/	.	16a\	.	.	.
.	.	16g/	.	16b\	.	.	.
8G\	.	16f#/	.	16a\	.	.	.
.	.	16g/JJ)	.	16b\JJ)	.	.	.
!	!	!	!	!LO:LB:g=original	!	!	!
=97	=97	=97	=97	=97	=97	=97	=97
*	*	*tremolo	*	*	*	*	*
8r	.	8a/L	.	16.aa\LL	p	1.r	.
.	.	.	.	32ff#\JJk	.	.	.
8D/L	.	8a/	.	8dd\L	.	.	.
8D/J	.	8a/J	.	8dd\J	.	.	.
*	*	*Xtremolo	*	*	*	*	*
=98	=98	=98	=98	=98	=98	=98	=98
*tremolo	*	*	*	*	*	*	*
8G\L	.	8b\L	.	8bb'\L	.	.	.
8G\	.	(16b\L	.	(16bb\L	.	.	.
.	.	16dd\	.	16ddd\	.	.	.
8G\J	.	16cc\	.	16ccc\	.	.	.
.	.	16b\JJ)	.	16bb\JJ)	.	.	.
=99	=99	=99	=99	=99	=99	=99	=99
8D\L	.	4.a/	.	16aa\LL	.	.	.
.	.	.	.	16ff#\JJ	.	.	.
8D\	.	.	.	8dd'\L	.	.	.
8D\J	.	.	.	8dd'\J	.	.	.
*Xtremolo	*	*	*	*	*	*	*
=100	=100	=100	=100	=100	=100	=100	=100
8F#\L	f	16b\LL	f	8ccc\L	f	.	.
.	.	16a\J	.	.	.	.	.
8G\J	.	8b\J	.	8bb\J	.	.	.
8r	.	8r	.	8r	.	.	.
!LO:LB;g=original	!	!	!	!	!	!	!
=101	=101	=101	=101	=101	=101	=101	=101
*	*	*tremolo	*	*	*	*	*
!	!LO:DY:t=piano	!	!	!	!	!	!
8r	p	8a/L	p	16.aa\LL	p	1.r	.
.	.	.	.	32ff#\JJk	.	.	.
8D\L	.	8a/	.	8dd'\L	.	.	.
8D\J	.	8a/J	.	8dd'\J	.	.	.
*	*	*Xtremolo	*	*	*	*	*
=102	=102	=102	=102	=102	=102	=102	=102
*tremolo	*	*	*	*	*	*	*
8G\L	.	8b'\L	.	8bb'\L	.	.	.
8G\	.	(16b\L	.	(16bb\L	.	.	.
.	.	16dd\	.	16ddd\	.	.	.
8G\J	.	16cc\	.	16ccc\	.	.	.
.	.	16b\JJ)	.	16bb\JJ)	.	.	.
=103	=103	=103	=103	=103	=103	=103	=103
*	*	*tremolo	*	*	*	*	*
8D\L	.	8a/L	.	16aa\LL	.	.	.
.	.	.	.	16ff#\JJ	.	.	.
8D\	.	8a/	.	8dd'\L	.	.	.
8D\J	.	8a/J	.	8dd'\J	.	.	.
*Xtremolo	*	*Xtremolo	*	*	*	*	*
=104	=104	=104	=104	=104	=104	=104	=104
8F#\L	f	8cc/L 8d/	.	8ccc\L	.	.	.
8G\J	.	8b/J 8d/	.	8bb\J	.	.	.
!	!	!LO:TX:a:t=104.	!	!LO:TX:a:t=104.	!	!	!
8r;	.	8r	.	8r	.	.	.
==	==	==	==	==	==	==	==
*-	*-	*-	*-	*-	*-	*-	*-
!!!system-decoration: s1[(s2,s3)]s4
!!!RDF**dynam: p = p.
!!!RDF**dynam: f = for.
!!!RDF**kern: | = vertical stroke
!!!AIN: 1 empty 2 violn 1 vox
!!!ENC: Marcin Jachim
!!!END: 2020-05-09
!!!ENC: Leszek Kubiak
!!!END: 2022-01-03
